src/icons/svgs/16/twitter.svg

<svg width="16" height="16" viewBox="0 0 16 16" fill="none" xmlns="http://www.w3.org/2000/svg">
<g clip-path="url(#clip0)">
<path d="M16 3.40625C15.4375 3.6875 14.875 3.78125 14.2188 3.875C14.875 3.5 15.3437 2.9375 15.5312 2.1875C14.9687 2.5625 14.3125 2.75 13.5625 2.9375C13 2.375 12.1562 2 11.3125 2C9.71875 2 8.3125 3.40625 8.3125 5.09375C8.3125 5.375 8.3125 5.5625 8.40625 5.75C5.875 5.65625 3.53125 4.4375 2.03125 2.5625C1.75 3.03125 1.65625 3.5 1.65625 4.15625C1.65625 5.1875 2.21875 6.125 3.0625 6.6875C2.59375 6.6875 2.125 6.5 1.65625 6.3125C1.65625 7.8125 2.6875 9.03125 4.09375 9.3125C3.8125 9.40625 3.53125 9.40625 3.25 9.40625C3.0625 9.40625 2.875 9.40625 2.6875 9.3125C3.0625 10.5313 4.1875 11.4688 5.59375 11.4688C4.5625 12.3125 3.25 12.7812 1.75 12.7812C1.46875 12.7812 1.28125 12.7812 1 12.7812C2.40625 13.625 4 14.1875 5.6875 14.1875C11.3125 14.1875 14.4063 9.5 14.4063 5.46875C14.4063 5.375 14.4063 5.1875 14.4063 5.09375C15.0625 4.625 15.625 4.0625 16 3.40625Z" fill="black"/>
</g>
<defs>
<clipPath id="clip0">
<rect width="16" height="16" fill="white"/>
</clipPath>
</defs>
</svg>

<svg width="16" height="16" viewBox="0 0 16 16" xmlns="http://www.w3.org/2000/svg">
    <g clip-path="url(#a)">
        <path d="M16 3.406c-.563.281-1.125.375-1.781.469.656-.375 1.125-.938 1.312-1.688-.562.376-1.219.563-1.969.75A3.274 3.274 0 0 0 11.313 2c-1.593 0-3 1.406-3 3.094 0 .281 0 .468.094.656-2.531-.094-4.875-1.313-6.375-3.188-.281.47-.375.938-.375 1.594 0 1.032.563 1.969 1.407 2.532-.47 0-.938-.188-1.407-.375 0 1.5 1.032 2.718 2.438 3-.282.093-.563.093-.844.093-.188 0-.375 0-.563-.094a3.038 3.038 0 0 0 2.907 2.157c-1.032.844-2.344 1.312-3.844 1.312H1c1.406.844 3 1.406 4.688 1.406 5.625 0 8.718-4.687 8.718-8.718v-.375c.656-.469 1.219-1.032 1.594-1.688z"/>
    </g>
    <defs>
        <clipPath id="a">
            <path fill="#fff" d="M0 0h16v16H0z"/>
        </clipPath>
    </defs>
</svg>
